img/form-email.svg

<svg width="24" height="24" viewBox="0 0 24 24" fill="none" xmlns="http://www.w3.org/2000/svg">
<path d="M4 3C2.5 3 1 4.5 1 6V18C1 19.5 2.5 21 4 21H20C21.5 21 23 19.5 23 18V6C23 4.5 21.5 3 20 3H4ZM21 8.35341L12 12.4034L3 8.35341V6C3 5.44772 3.44772 5 4 5H20C20.5523 5 21 5.44772 21 6V8.35341ZM21 10.5466V18C21 18.5523 20.5523 19 20 19H4C3.44772 19 3 18.5523 3 18V10.5466L11.1793 14.2273C11.7012 14.4621 12.2988 14.4621 12.8207 14.2273L21 10.5466Z" fill="black" fill-opacity="0.2"/>
</svg>

<svg width="24" height="24" fill="none" xmlns="http://www.w3.org/2000/svg"><path d="M4 3C2.5 3 1 4.5 1 6v12c0 1.5 1.5 3 3 3h16c1.5 0 3-1.5 3-3V6c0-1.5-1.5-3-3-3H4zm17 5.353l-9 4.05-9-4.05V6a1 1 0 011-1h16a1 1 0 011 1v2.353zm0 2.194V18a1 1 0 01-1 1H4a1 1 0 01-1-1v-7.453l8.18 3.68a2 2 0 001.64 0l8.18-3.68z" fill="#000" fill-opacity=".2"/></svg>
